!!! OTL: Berkowitz292
!!! Chapter: 1
!!! Section: III
!!! Page: 70
!!! Mode: 
!!! Encoder: DJB
**kern
*staff1
*I"Piano
=1-
*clefG2
*k[f#]
*G:
*met(c)
*M4/4
8r
8r
8r
8r
8r
8dd\L
8cc\
8b\J
=2
8a/L
8a/J
4r
8r
8dd\L
8b\
8a\J
=3
8g/L
8g/J
4r
8r
8dd\L
8b\
8g\J
=4
8f#/
4dd\
8d/
4e/
4cc#\
=5
4dd\
4d/
8r
8b/L
8a/
8g/J
=6
8a/L
8a/J
4r
8r
8d/L
8f#/
8a/J
=7
!!linebreak:original
8g/L
8g/J
4r
8r
8e/L
8g/
8cc/J
=8
8b\
4d/
8B/
4c/
4a/
=9
4g/
4g/
4r
4g/
=10
[2ee\
6ee\]
6dd\
6cc\
=11
[2dd\
6dd\]
6b\
6g/
=12
6a/
6b\
6cc\
4b\
4a/
=13
4b\
4dd\
4r
4g/
=14
[2ee\
6ee\]
6dd\
6cc\
=15
!!linebreak:original
[2dd\
6dd\]
6b\
6g/
=16
6a/
6b\
6cc\
4d/
4f#/
=17
4g/
4r
8r
8dd\L
8cc\
8b\J
=18
8a/L
8a/J
4r
8r
8dd\L
8b\
8a\J
=19
8g/L
8g/J
4r
8r
8dd\L
8b\
8g\J
=20
8f#/
4dd\
8d/
4e/
4cc#\
=21
4dd\
4d/
8r
8b/L
8a/
8g/J
=22
!!linebreak:original
8a/L
8a/J
4r
8r
8d/L
8f#/
8a/J
=23
8g/L
8g/J
4r
8r
8e/L
8g/
8cc/J
=24
8b\
4d/
8B/
4c/
4a/
=25
4g/
4g/
2r
==
*-
